images/time-management.svg

<svg width="56" height="56" viewBox="0 0 56 56" fill="none" xmlns="http://www.w3.org/2000/svg">
<g clip-path="url(#clip0)">
<path d="M50.7634 38.5232C51.2155 38.5232 51.582 38.1568 51.582 37.7046V4.66845C51.582 3.26178 50.4376 2.1175 49.031 2.1175H36.7194C36.6326 2.01556 36.5437 1.91527 36.4497 1.81825C35.3153 0.64575 33.8149 0 32.2248 0C30.6347 0 29.1343 0.64575 27.9999 1.81814C27.906 1.91516 27.817 2.01556 27.7303 2.11739H15.4185C14.0119 2.11739 12.8675 3.26167 12.8675 4.66834V19.8308C11.4171 20.5577 10.0773 21.5212 8.89675 22.7018C8.57705 23.0216 8.57705 23.5398 8.89675 23.8595C9.21646 24.1791 9.73479 24.1791 10.0544 23.8595C12.6333 21.2805 16.0622 19.8602 19.7095 19.8602C27.2385 19.8602 33.3638 25.9855 33.3638 33.5145C33.3638 41.0434 27.2385 47.1687 19.7095 47.1687C12.1804 47.1687 6.05508 41.0436 6.05508 33.5147C6.05508 31.1431 6.67218 28.8075 7.83975 26.7603C8.06375 26.3676 7.92704 25.8676 7.53427 25.6437C7.14172 25.4197 6.64166 25.5565 6.41766 25.9492C5.10932 28.2429 4.41785 30.8592 4.41785 33.5147C4.41785 39.4884 7.86152 44.6721 12.8675 47.1873V53.4492C12.8675 54.8557 14.0119 56 15.4185 56H49.031C50.4376 56 51.582 54.8557 51.582 53.4492V41.5486C51.582 41.0965 51.2155 40.73 50.7634 40.73C50.3114 40.73 49.9449 41.0965 49.9449 41.5486V53.4492C49.9449 53.953 49.5349 54.3628 49.0312 54.3628H15.4185C14.9146 54.3628 14.5047 53.9529 14.5047 53.4492V47.8936C16.1302 48.4837 17.8828 48.8062 19.7095 48.8062C22.4121 48.8062 24.9527 48.1005 27.1582 46.865H32.5949C33.047 46.865 33.4135 46.4986 33.4135 46.0464C33.4135 45.5943 33.047 45.2279 32.5949 45.2279H29.5278C32.8714 42.4205 35.0011 38.212 35.0011 33.5147C35.0011 25.083 28.1413 18.2232 19.7096 18.2232C19.415 18.2232 19.122 18.2325 18.8303 18.2489V9.84966H21.7912V11.8709C21.7912 12.3519 22.0183 12.8151 22.3984 13.1097L23.1761 13.7121C23.6512 14.0804 24.3148 14.0806 24.79 13.7123L25.3566 13.2734L25.9229 13.7122C26.3981 14.0803 27.0618 14.0805 27.5369 13.7122L28.1033 13.2734L28.67 13.7125C29.1449 14.0804 29.8086 14.0805 30.2836 13.7123L30.8504 13.2733L31.4171 13.7125C31.892 14.0804 32.5556 14.0803 33.0308 13.7123L33.5975 13.2733L34.1642 13.7125C34.6394 14.0805 35.3031 14.0805 35.778 13.7122L36.3443 13.2734L36.9109 13.7122C37.3859 14.0805 38.0495 14.0805 38.5247 13.7126L39.0918 13.2733L39.6587 13.7125C40.1335 14.0802 40.797 14.0803 41.2721 13.7128C41.863 13.2687 42.717 12.7195 42.6586 11.8708V9.84966H45.6195V45.2278H36.7293C36.2773 45.2278 35.9107 45.5942 35.9107 46.0463C35.9107 46.4985 36.2773 46.8649 36.7293 46.8649H45.8924C46.6447 46.8649 47.2568 46.2528 47.2568 45.5005V9.57687C47.2568 8.82459 46.6447 8.21253 45.8924 8.21253H42.6586V8.17786C42.6586 7.19108 41.8558 6.38827 40.869 6.38827H38.179C38.184 6.28775 38.1866 6.18702 38.1866 6.08628C38.1866 5.27636 38.0268 4.48711 37.7236 3.75462H49.0313C49.5352 3.75462 49.945 4.16456 49.945 4.66834V37.7045C49.9449 38.1567 50.3114 38.5232 50.7634 38.5232ZM18.5574 8.21253C17.8051 8.21253 17.1931 8.82459 17.1931 9.57687V18.429C16.2728 18.5805 15.3736 18.8145 14.5047 19.1282V4.66845C14.5047 4.16456 14.9147 3.75473 15.4185 3.75473H26.7261C26.4229 4.48733 26.2631 5.27647 26.2631 6.08639C26.2631 6.18712 26.2663 6.28786 26.2713 6.38838H23.5807C22.5939 6.38838 21.7911 7.19119 21.7911 8.17797V8.21264H18.5574V8.21253ZM41.0213 8.17786V11.8363L40.4656 12.2665L39.8986 11.8273C39.661 11.6433 39.3763 11.5513 39.0917 11.5513C38.8071 11.5513 38.5225 11.6433 38.2851 11.8272L37.7179 12.2664L37.1513 11.8275C36.6762 11.4593 36.0124 11.4593 35.5373 11.8275L34.971 12.2663L34.4042 11.8273C33.9293 11.4595 33.2658 11.4594 32.7905 11.8274L32.2238 12.2664L31.6572 11.8273C31.1822 11.4593 30.5186 11.4592 30.0435 11.8274L29.4768 12.2664L28.9102 11.8275C28.435 11.4593 27.7712 11.4593 27.2963 11.8275L26.7298 12.2663L26.1635 11.8275C25.6882 11.4593 25.0245 11.4593 24.5495 11.8275L23.983 12.2663L23.4282 11.8366V8.17786C23.4282 8.09375 23.4966 8.02539 23.5807 8.02539H40.8687C40.9529 8.0255 41.0213 8.09375 41.0213 8.17786ZM27.912 6.38827C27.9051 6.28786 27.9003 6.18723 27.9003 6.08628C27.9003 3.67456 29.8807 1.63713 32.2248 1.63713C34.5689 1.63713 36.5493 3.67456 36.5493 6.08628C36.5493 6.18713 36.5445 6.28786 36.5376 6.38827H27.912Z" fill="white"/>
<path d="M12.7721 40.1945C13.086 40.5205 13.6042 40.5298 13.9296 40.2164L18.1732 36.1304C18.6242 36.3963 19.1492 36.5495 19.7096 36.5495C21.3831 36.5495 22.7445 35.1882 22.7445 33.5148C22.7445 32.125 21.8051 30.9513 20.5283 30.5931V26.5918C20.5283 26.1396 20.1618 25.7732 19.7097 25.7732C19.2577 25.7732 18.8912 26.1396 18.8912 26.5918V30.5931C17.6143 30.9513 16.675 32.125 16.675 33.5148C16.675 34.0343 16.8064 34.5235 17.0374 34.9515L12.7943 39.0371C12.4683 39.3507 12.4585 39.8689 12.7721 40.1945ZM19.7095 32.1172C20.4802 32.1172 21.1071 32.7441 21.1071 33.5148C21.1071 34.2854 20.4802 34.9124 19.7095 34.9124C18.9389 34.9124 18.3119 34.2854 18.3119 33.5148C18.3119 32.7441 18.9389 32.1172 19.7095 32.1172Z" fill="#7ED95F"/>
<path d="M19.6894 45.0958C20.1671 45.0958 20.5544 44.7085 20.5544 44.2308C20.5544 43.753 20.1671 43.3657 19.6894 43.3657C19.2116 43.3657 18.8243 43.753 18.8243 44.2308C18.8243 44.7085 19.2116 45.0958 19.6894 45.0958Z" fill="white"/>
<path d="M19.6894 23.5543C20.1671 23.5543 20.5544 23.167 20.5544 22.6893C20.5544 22.2115 20.1671 21.8242 19.6894 21.8242C19.2116 21.8242 18.8243 22.2115 18.8243 22.6893C18.8243 23.167 19.2116 23.5543 19.6894 23.5543Z" fill="white"/>
<path d="M8.91864 34.325C9.39639 34.325 9.78368 33.9378 9.78368 33.46C9.78368 32.9823 9.39639 32.595 8.91864 32.595C8.44088 32.595 8.05359 32.9823 8.05359 33.46C8.05359 33.9378 8.44088 34.325 8.91864 34.325Z" fill="white"/>
<path d="M30.4603 34.325C30.938 34.325 31.3253 33.9378 31.3253 33.46C31.3253 32.9823 30.938 32.595 30.4603 32.595C29.9825 32.595 29.5952 32.9823 29.5952 33.46C29.5952 33.9378 29.9825 34.325 30.4603 34.325Z" fill="white"/>
<path d="M13.4269 42.2657C13.182 42.676 13.3162 43.2071 13.7265 43.4519C14.1368 43.6967 14.6679 43.5625 14.9127 43.1523C15.1576 42.742 15.0234 42.211 14.6131 41.9661C14.2028 41.7212 13.6718 41.8554 13.4269 42.2657Z" fill="white"/>
<path d="M24.7658 24.9538C25.176 25.1987 25.7072 25.0646 25.9519 24.6543C26.1968 24.244 26.0626 23.7129 25.6524 23.4681C25.2421 23.2232 24.711 23.3573 24.4662 23.7677C24.2214 24.1779 24.3555 24.7091 24.7658 24.9538Z" fill="white"/>
<path d="M10.8837 27.1976C10.4735 26.9527 9.94246 27.0868 9.69757 27.4972C9.45268 27.9074 9.58688 28.4384 9.99714 28.6833C10.4074 28.9282 10.9385 28.7941 11.1833 28.3838C11.4281 27.9735 11.294 27.4424 10.8837 27.1976Z" fill="white"/>
<path d="M28.4951 39.7226C28.9054 39.9675 29.4365 39.8333 29.6813 39.423C29.9262 39.0128 29.792 38.4818 29.3817 38.2369C28.9715 37.992 28.4403 38.1262 28.1956 38.5364C27.9508 38.9466 28.0849 39.4777 28.4951 39.7226Z" fill="white"/>
<path d="M24.295 43.2349C24.5325 43.6494 25.0612 43.7928 25.4757 43.5552C25.8902 43.3176 26.0336 42.789 25.796 42.3745C25.5585 41.96 25.0299 41.8166 24.6153 42.0541C24.2008 42.2917 24.0574 42.8204 24.295 43.2349Z" fill="white"/>
<path d="M14.7635 24.866C15.1781 24.6284 15.3215 24.0998 15.0839 23.6853C14.8463 23.2708 14.3177 23.1274 13.9032 23.3649C13.4887 23.6025 13.3453 24.1311 13.5828 24.5456C13.8204 24.9602 14.349 25.1036 14.7635 24.866Z" fill="white"/>
<path d="M28.604 27.3535C28.1895 27.591 28.0461 28.1196 28.2836 28.5341C28.5212 28.9487 29.0498 29.0921 29.4643 28.8545C29.8789 28.6169 30.0223 28.0883 29.7847 27.6738C29.5471 27.2593 29.0184 27.1159 28.604 27.3535Z" fill="white"/>
<path d="M9.91466 38.0656C9.50013 38.3032 9.35674 38.8318 9.5943 39.2463C9.83186 39.6609 10.3605 39.8042 10.775 39.5667C11.1895 39.3291 11.3329 38.8005 11.0954 38.386C10.8578 37.9714 10.3292 37.828 9.91466 38.0656Z" fill="white"/>
<path d="M36.2926 23.237H41.5951C42.0471 23.237 42.4136 22.8706 42.4136 22.4184C42.4136 21.9663 42.0471 21.5999 41.5951 21.5999H36.2926C35.8405 21.5999 35.474 21.9663 35.474 22.4184C35.474 22.8706 35.8404 23.237 36.2926 23.237Z" fill="#7ED95F"/>
<path d="M42.4136 19.1442C42.4136 18.6921 42.0471 18.3257 41.595 18.3257H33.1406C32.6885 18.3257 32.322 18.6921 32.322 19.1442C32.322 19.5964 32.6885 19.9628 33.1406 19.9628H41.5949C42.0471 19.9629 42.4136 19.5964 42.4136 19.1442Z" fill="#7ED95F"/>
</g>
<defs>
<clipPath id="clip0">
<rect width="56" height="56" fill="white"/>
</clipPath>
</defs>
</svg>

<svg width="56" height="56" fill="none" xmlns="http://www.w3.org/2000/svg"><g clip-path="url(#clip0)"><path d="M50.763 38.523a.819.819 0 00.819-.818V4.668a2.554 2.554 0 00-2.551-2.55H36.719a6.261 6.261 0 00-.27-.3C35.316.646 33.816 0 32.226 0c-1.59 0-3.09.646-4.225 1.818a6.313 6.313 0 00-.27.3H15.418a2.554 2.554 0 00-2.55 2.55v15.163a15.32 15.32 0 00-3.971 2.87.819.819 0 101.157 1.159c2.58-2.58 6.008-4 9.655-4 7.53 0 13.655 6.125 13.655 13.654 0 7.53-6.125 13.655-13.654 13.655-7.53 0-13.655-6.125-13.655-13.654 0-2.372.617-4.707 1.785-6.755a.818.818 0 10-1.422-.81c-1.309 2.293-2 4.91-2 7.565 0 5.973 3.444 11.157 8.45 13.672v6.262A2.554 2.554 0 0015.418 56h33.613a2.554 2.554 0 002.551-2.55V41.548a.819.819 0 00-1.637 0v11.9c0 .504-.41.914-.914.914H15.42a.915.915 0 01-.914-.914v-5.555c1.625.59 3.378.912 5.204.912 2.703 0 5.244-.706 7.45-1.941h5.436a.819.819 0 100-1.637h-3.067C32.87 42.42 35 38.212 35 33.515c0-8.432-6.86-15.292-15.291-15.292-.295 0-.588.01-.88.026v-8.4h2.961v2.022c0 .48.227.944.607 1.239l.778.602a1.317 1.317 0 001.614 0l.567-.439.566.44a1.317 1.317 0 001.614 0l.566-.44.567.44a1.317 1.317 0 001.614 0l.566-.44.567.44a1.318 1.318 0 001.614 0l.566-.44.567.44a1.317 1.317 0 001.614 0l.566-.44.567.44a1.317 1.317 0 001.614 0l.567-.44.567.44a1.318 1.318 0 001.613 0c.591-.444 1.445-.993 1.387-1.842V9.85h2.96v35.378h-8.89a.819.819 0 100 1.637h9.163c.753 0 1.365-.612 1.365-1.364V9.577c0-.752-.612-1.364-1.365-1.364H42.66v-.035c0-.987-.803-1.79-1.79-1.79h-2.69a6.08 6.08 0 00-.455-2.633H49.03c.504 0 .914.41.914.913v33.037c0 .452.366.818.818.818zM18.557 8.213c-.752 0-1.364.612-1.364 1.364v8.852c-.92.152-1.82.386-2.688.7V4.668c0-.504.41-.914.913-.914h11.308a6.087 6.087 0 00-.455 2.633h-2.69c-.987 0-1.79.803-1.79 1.79v.035h-3.234zm22.464-.035v3.658l-.555.43-.567-.439a1.316 1.316 0 00-1.614 0l-.567.44-.567-.44a1.317 1.317 0 00-1.614 0l-.566.44-.567-.44a1.318 1.318 0 00-1.614 0l-.566.44-.567-.44a1.317 1.317 0 00-1.613 0l-.567.44-.567-.44a1.317 1.317 0 00-1.614 0l-.566.44-.567-.44a1.317 1.317 0 00-1.614 0l-.566.44-.555-.43v-3.66c0-.083.069-.152.153-.152h17.288c.084 0 .152.069.152.153zm-13.109-1.79a4.404 4.404 0 01-.012-.302c0-2.411 1.98-4.449 4.325-4.449 2.344 0 4.324 2.038 4.324 4.45 0 .1-.005.2-.011.301h-8.626z" fill="#fff"/><path d="M12.772 40.194a.819.819 0 001.158.022l4.243-4.086c.451.266.976.42 1.537.42a3.038 3.038 0 003.034-3.035 3.04 3.04 0 00-2.216-2.922v-4.001a.819.819 0 10-1.637 0v4.001a3.04 3.04 0 00-2.216 2.922c0 .52.131 1.008.362 1.437l-4.243 4.085a.818.818 0 00-.022 1.157zm6.937-8.077a1.4 1.4 0 011.398 1.398 1.4 1.4 0 01-1.398 1.397 1.4 1.4 0 01-1.397-1.397 1.4 1.4 0 011.397-1.398z" fill="#7ED95F"/><path d="M19.69 45.096a.865.865 0 100-1.73.865.865 0 000 1.73zm0-21.542a.865.865 0 100-1.73.865.865 0 000 1.73zM8.919 34.325a.865.865 0 100-1.73.865.865 0 000 1.73zm21.541 0a.865.865 0 100-1.73.865.865 0 000 1.73zm-17.033 7.941a.865.865 0 101.485.886.865.865 0 00-1.485-.886zm11.339-17.312a.865.865 0 10.886-1.485.865.865 0 00-.886 1.485zm-13.882 2.244a.865.865 0 10-.887 1.485.865.865 0 00.887-1.485zm17.611 12.525a.865.865 0 10.887-1.486.865.865 0 00-.887 1.486zm-4.2 3.512a.865.865 0 101.501-.86.865.865 0 00-1.501.86zm-9.531-18.369a.865.865 0 10-.86-1.501.865.865 0 00.86 1.501zm13.84 2.488a.865.865 0 10.86 1.5.865.865 0 00-.86-1.5zM9.915 38.066a.865.865 0 10.86 1.5.865.865 0 00-.86-1.5z" fill="#fff"/><path d="M36.293 23.237h5.302a.819.819 0 000-1.637h-5.302a.819.819 0 100 1.637zm6.121-4.093a.819.819 0 00-.819-.818h-8.454a.819.819 0 100 1.637h8.454a.818.818 0 00.819-.819z" fill="#7ED95F"/></g><defs><clipPath id="clip0"><path fill="#fff" d="M0 0h56v56H0z"/></clipPath></defs></svg>
